%
O1234
(T0101 NR=0.8 - ZMIN=-57.75 - GENERAL TURNING)
(T0202 D=50. CR=0. - ZMIN=-72.75 - DRILL)
(T0303 NR=0.8 - ZMIN=-58.941 - GENERAL TURNING)
(T0404 NR=0.8 - ZMIN=-72.25 - BORING TURNING)
G90G94G18
G21
G50S2000
G30U0W0

(FACE ROUGH)
T0100
(ROUGH_OD.8)
G90G95G18
G54
M08
G97S267M03
G0X238.Z20.
G50S2000
G96S200M03
G0Z4.25
G72W2.R1.
G72P10Q11U0.2W0.1F0.127
N10G0Z0.
G1X48.
N11Z2.45
G0X238.Z20.
G80
G97S267M03

(OD ROUGH )
G0X240.Z1.25
G50S2000
G96S200M03
G0X238.5
G71U2.5R1.
G71P12Q13U0.2W0.1F0.127
N12G0X143.531
G1Z-0.234
X146.Z-1.469
Z-57.
X188.563
X190.063Z-57.75
N13X234.4
G0X240.Z1.25
G97S265M03
M09

(PROFILE ROUGHING4)
M01
T0300
(ROUGH_OD_PRO.8)
G90G95G18
G54
M08
G97S431M03
G0X147.7Z20.
G50S2000
G96S200M03
G0Z-17.112
G1X146.493F0.25
X146.15Z-17.972
G3X145.881Z-18.297R0.9
G1X145.838Z-18.329
G3X145.614Z-18.466R0.9
G1X143.7Z-19.423
Z-56.72
G2X145.4Z-56.9R2.1
G1X146.2
X148.2Z-55.9
G0Z-19.423
X147.68
G1X143.7F0.25
X142.43Z-20.058
G2X141.2Z-21.543R2.1
G1Z-54.8
G2X143.7Z-56.72R2.1
G1X145.7Z-55.72
G97S437M03
M09

(DRILL HOLE)
M01
T0200
(UDRILL50)
G90G94G18
G54
M08
G97S1273M03
G0X0.Z20.
G98G81X0.Z-72.75R5.25F1000.
G80
G0Z20.
M09

(ID ROUGH)
M01
T0400
G90G95G18
G54
M08
G97S1201M03
G0X53.Z0.75
G50S2000
G96S200M03
G1Z-72.25F0.127
X50.
X48.Z-71.25
G0Z0.75
X50.579
G1X56.F0.127
Z-72.25
X53.
X51.Z-71.25
G0Z0.75
X59.
G1Z-72.25F0.127
X56.
X54.Z-71.25
G0Z0.75
X62.
G1Z-72.25F0.127
X59.
X57.Z-71.25
G0Z0.75
X65.
G1Z-72.25F0.127
X62.
X60.Z-71.25
G0Z0.75
X68.
G1Z-72.25F0.127
X65.
X63.Z-71.25
G0Z0.75
X71.
G1Z-72.25F0.127
X68.
X66.Z-71.25
G0Z0.75
X74.
G1Z-72.25F0.127
X71.
X69.Z-71.25
G0Z0.75
X77.
G1Z-72.25F0.127
X74.
X72.Z-71.25
G0Z0.75
X80.
G1Z-72.25F0.127
X77.
X75.Z-71.25
G0Z0.75
X83.
G1Z-72.25F0.127
X80.
X78.Z-71.25
G0Z0.75
X86.
G1Z-72.25F0.127
X83.
X81.Z-71.25
G0Z0.75
X89.
G1Z-72.25F0.127
X86.
X84.Z-71.25
G0Z0.75
X92.
G1Z-72.25F0.127
X89.
X87.Z-71.25
G0Z0.75
X95.
G1Z-72.25F0.127
X92.
X90.Z-71.25
G0Z0.75
X98.
G1Z-72.25F0.127
X95.
X93.Z-71.25
G0Z0.75
X101.
G1Z-72.25F0.127
X98.
X96.Z-71.25
G0Z0.75
X104.
G1Z-72.25F0.127
X101.
X99.Z-71.25
G0Z0.75
X107.
G1Z-72.25F0.127
X104.
X102.Z-71.25
G0Z0.75
X110.
G1Z-72.25F0.127
X107.
X105.Z-71.25
G0Z0.75
X113.
G1Z-72.25F0.127
X110.
X108.Z-71.25
G0Z0.75
X116.
G1Z-15.388F0.127
G2X115.8Z-15.8R0.9
G1Z-72.25
X113.
X111.Z-71.25
G0Z0.75
X119.
G1Z-14.4F0.127
X118.6
G2X117.327Z-14.664R0.9
G1X116.327Z-15.164
G2X116.Z-15.388R0.9
G1X114.Z-14.388
G0Z0.75
X122.
G1Z-14.28F0.127
G3X120.6Z-14.4R2.1
G1X119.
X117.Z-13.4
G0Z0.75
X124.593
G1Z-12.951F0.127
G3X122.Z-14.28R2.1
G1X120.Z-13.28
G0Z0.75
X127.186
G1Z-0.234F0.127
X125.327Z-1.164
G2X124.8Z-1.8R0.9
G1Z-12.3
G3X124.593Z-12.951R2.1
G1X122.593Z-11.951
G97S519M03
M09

(PROFILE FINISHING1)
M01
T0300
(ROUGH_OD_PRO.8)
G90G95G18
G54
M08
G97S249M03
G0X256.Z20.
G50S2000
G96S200M03
G0Z2.8
X116.4
Z2.
G1Z0.F0.25
X118.4
X143.063
X146.Z-1.469
Z-17.837
X145.892Z-18.109
X145.584Z-18.339
X142.289Z-19.987
G2X141.Z-21.543R2.2
G1Z-54.8
G2X145.4Z-57.R2.2
G1X188.563
X191.031Z-58.234
X192.446Z-58.941
X195.5
G0X256.
Z20.
G97S249M03
M09

(PROFILE FINISHING2)
M01
T0400
(ROUGH_ID.8.25)
G90G95G18
G54
M08
G97S637M03
G0X100.Z20.
G50S2000
G96S200M03
G0Z0.766
X123.558
G1X127.469F0.25
Z-0.234
X125.Z-1.469
Z-12.3
G3X120.6Z-14.5R2.2
G1X117.937
X116.Z-15.469
Z-38.12
X116.465Z-39.439
X115.318Z-40.258
X111.82
G0X100.
Z20.
G97S637M03

M09
G30U0W0
M30
%
